X:36
M:12/8
L:1/8
K:D
g2g f2f efe d2A | BAF EFA B2A A2 :| 
e | faa aff e2d d2e | faa afa b2e e2f | 
g2g f2f efe d2A | BAF EFA B2A A2 :|| 

